public/assets/logo-background-small.svg

<svg fill="none" height="75" viewBox="0 0 131 75" width="131" xmlns="http://www.w3.org/2000/svg" xmlns:xlink="http://www.w3.org/1999/xlink"><clipPath id="a"><path d="m0 0h131v75h-131z"/></clipPath><g clip-path="url(#a)"><path clip-rule="evenodd" d="m5.37086 44.7028c4.68634-4.6863 12.22874-4.6863 27.31374-4.6863h51.9917c3.7249 0 5.5874 0 7.1361-.3087 6.3419-1.2641 11.2996-6.2215 12.5636-12.5634.309-1.5487.309-3.4112.309-7.1361 0-3.725 0-5.5874.308-7.1361 1.264-6.34191 6.222-11.29933 12.564-12.563495 1.548-.30870473 3.411-.308705 7.136-.308705h5.992l-129.999408.00019693-.001022 74.99990307v-2.9834c0-15.085.000003-22.6276 4.68629-27.3139z" fill="#fffefc" fill-rule="evenodd"/></g></svg>

<svg width="131" height="75" viewBox="0 0 131 75" fill="none" xmlns="http://www.w3.org/2000/svg">
<g clip-path="url(#clip0_8_9)">
<path fill-rule="evenodd" clip-rule="evenodd" d="M5.37086 44.7028C10.0572 40.0165 17.5996 40.0165 32.6846 40.0165H84.6763C88.4012 40.0165 90.2637 40.0165 91.8124 39.7078C98.1543 38.4437 103.112 33.4863 104.376 27.1444C104.685 25.5957 104.685 23.7332 104.685 20.0083C104.685 16.2833 104.685 14.4209 104.993 12.8722C106.257 6.53029 111.215 1.57287 117.557 0.308705C119.105 2.68221e-07 120.968 0 124.693 0H130.685L0.685592 0.000196934L0.68457 75.0001V72.0167C0.68457 56.9317 0.684573 49.3891 5.37086 44.7028Z" fill="#FFFEFC"/>
</g>
<defs>
<clipPath id="clip0_8_9">
<rect width="131" height="75" fill="white"/>
</clipPath>
</defs>
</svg>
